X: 41993
T: Walls Of St Malo
R: polka
M: 2/4
K: Bminor
|:Bf fe|fg fe|df ed|A2 B2:|
|:~e2 e2|ed c2|de fg|g/f/e f/e/d|
~e2 e2|ed c2|cd BA|B2- B2:|

